!!!!SEGMENT: pl-kk--kk-i-3--037_anonim--alleluia-pascha-nostrum.krn
!!!cenid: 15xx:646
!!!COM: Anonim
!!!COM-rismID: pe30004985
!!!CDT:
!!!CNT:
!!!OTL: Alleluia, Pascha nostrum
!!!PDT:
!!!AGN:
!!!SMS-siglum: PL-Kk
!!!SMS-shelfmark: Kk.I.3
!!!SMS-shelfwork: 037 W
!!!SMS-variant:
!!!SMS-altvar:
!!!NIFC-rismSourceID: 1001145541
!!!NIFC-islandoraID: pl-kk:1170
!!!URL-pdf-islandora: https://repozytorium.nifc.pl/islandora/object/pl-kk%3A1170/datastream/PDF/view
!!!URL-scan: https://polish.musicsources.pl/pl/lokalizacje/galeria/rekopisy/5919 @EN{Scan on Polish Music Sources Website} @PL{Skany w portalu Dziedzictwo Muzyki Polskiej w otwartym dostępie}
!!!ONB-nifc: UWAGA: Discantus (s. 115v-116r, skan 0118), Tenor (s. 87r-v, skan 0259-0260), Bassus (s. 111v-112v, skan 0415-0416)
!!!AIN: 1 alto 1 bass 1 tenor
!!!key: G:mix
**kern	**text	**kern	**text	**kern	**text
*part3	*part3	*part2	*part2	*part1	*part1
*staff3	*staff3	*staff2	*staff2	*staff1	*staff1
*I"Bassus	*	*I"Tenor	*	*I"Discantus	*
*I'B	*	*I'T	*	*I'A	*
*Ibass	*	*Itenor	*	*Ialto	*
*ICvox	*	*ICvox	*	*ICvox	*
*clefF4	*	*clefC3	*	*clefC3	*
*k[]	*	*k[]	*	*k[bn]	*
*G:mix	*	*G:mix	*	*G:mix	*
*M2/1	*	*M2/1	*	*M2/1	*
*met(C)	*	*met(C|)	*	*met(C|)	*
=1-	=1-	=1-	=1-	=1-	=1-
*2\right	*	*	*	*	*
2.G\	Al-	1G	Al-	1r	.
4F/	-le-	.	.	.	.
*	*	*	*	*2\right	*
2.E/	.	1G	-le-	2.g\	Al-
4D/	.	.	.	4f\	-le-
=2-	=2-	=2-	=2-	=2-	=2-
*	*	*lig	*	*	*
2.C/	.	1G	-lu-	2.e\	.
4BB/	.	.	.	4d/	.
1AA	.	1A	.	2.c/	.
.	.	.	.	4B/	.
*	*	*Xlig	*	*	*
=3-	=3-	=3-	=3-	=3-	=3-
*	*	*lig	*	*	*
2.A\	.	1c	.	1A	.
4G\	.	.	.	.	.
2.F/	.	1A	.	2.a\	.
*custos:D	*	*	*	*	*
4E/	.	.	.	4g\	.
*	*	*Xlig	*	*	*
!LO:PB:g=original	!	!	!	!	!
=4-	=4-	=4-	=4-	=4-	=4-
*	*	*lig	*	*	*
1D	.	1d	.	2.f/	.
.	.	.	.	4e/	.
2.G/	.	1B	.	1d	.
4F/	.	.	.	.	.
*	*	*Xlig	*	*	*
=5-	=5-	=5-	=5-	=5-	=5-
*	*	*	*	*custos:f	*
4E/	.	1c	.	0g	.
4D/	.	.	.	.	.
2C/	.	.	.	.	.
1G	.	1.d	.	.	.
!	!	!	!	!LO:LB:g=original	!
=6-	=6-	=6-	=6-	=6-	=6-
2D/	.	.	.	1f	.
2F/	.	2c/	.	.	.
2G\	.	2B/	.	2d/	.
4F/	.	4A/	.	1g\	.
*	*	*custos:A	*	*	*
4E/	.	4G/	.	.	.
!	!	!LO:LB:g=original	!	!	!
=7-	=7-	=7-	=7-	=7-	=7-
1D	-lu-	1A	.	.	.
.	.	.	.	2f\	-lu-
1GG;l	-ia	1G;l	-ia	1g;<l	-ia
=8||	=8||	=8||	=8||	=8||	=8||
0r	.	1c	Pa-	00r	.
.	.	1B	-ſcha	.	.
=9-	=9-	=9-	=9-	=9-	=9-
*	*	*lig	*	*	*
1F	Pa-	1d	no-	.	.
*custos:G	*	*	*	*	*
1E	-scha	1e	.	.	.
*	*	*Xlig	*	*	*
!LO:LB:g=original	!	!	!	!	!
=10-	=10-	=10-	=10-	=10-	=10-
*lig	*	*lig	*	*	*
1G	no-	1d	.	0r	.
1A	.	1c	.	.	.
*Xlig	*	*Xlig	*	*	*
=11-	=11-	=11-	=11-	=11-	=11-
2G\	.	2B/	.	1r	.
2E/	.	1c	.	.	.
1D	.	.	.	1f	Pa-
.	.	2B/	.	.	.
=12-	=12-	=12-	=12-	=12-	=12-
1C	.	1c	-str(u)m	1e	-ſcha
*	*	*	*	*lig	*
2G\	.	1d	im-	1g	no-
1G\	.	.	.	.	.
=13-	=13-	=13-	=13-	=13-	=13-
*	*	*custos:d	*	*	*
.	.	1d	-mo-	1a	.
2F\	.	.	.	.	.
!	!	!LO:LB:g=original	!	!	!
*	*	*lig	*	*Xlig	*
2G\	.	1d	-la-	2g\	.
2D/	.	.	.	1f\	.
=14-	=14-	=14-	=14-	=14-	=14-
1C	.	1g	.	.	.
.	.	.	.	2e/	.
*	*	*Xlig	*	*	*
*	*	*lig	*	*	*
2F\	.	1a	.	1f	.
2D/	.	.	.	.	.
=15-	=15-	=15-	=15-	=15-	=15-
2E/	.	1g	.	1e	.
2C/	.	.	.	.	.
*	*	*Xlig	*	*	*
*	*	*2\right	*	*	*
1D	.	2f\	.	2d/	.
*	*	*	*	*custos:e	*
.	.	1d\	.	2f\	.
!	!	!	!	!LO:LB:g=original	!
=16-	=16-	=16-	=16-	=16-	=16-
1A	.	.	.	1e	.
.	.	2c/	.	.	.
2.D/	.	1d	.	2.f\	-strum
*custos:F	*	*	*	*	*
4E/	.	.	.	4e\	.
!LO:LB:g=original	!	!	!	!	!
=17-	=17-	=17-	=17-	=17-	=17-
2.F\	.	1A	.	1c	.
4E/	.	.	.	.	.
2D/	.	1A	.	2d\	.
2C/	-ſtrum	.	.	2e\	im-
=18-	=18-	=18-	=18-	=18-	=18-
*	*	*lig	*	*	*
0D	.	1A	.	1f	-mo-
.	.	1d	.	2f\	.
.	.	.	.	1d\	.
*	*	*Xlig	*	*	*
=19-	=19-	=19-	=19-	=19-	=19-
*	*	*lig	*	*	*
1A	im-	1e	.	.	.
.	.	.	.	2c/	.
1D	-mo-	1d	.	2d/	.
.	.	.	.	2f\	-la-
*	*	*Xlig	*	*	*
=20-	=20-	=20-	=20-	=20-	=20-
2E/	-la-	2c/	.	2e\	-tus-
2F/	-tus	1A	.	2d/	.
1E	.	.	.	1e	.
.	.	2G/	-la-	.	.
=21-	=21-	=21-	=21-	=21-	=21-
2AA/	est	0A	-tus	0e	-est
2.A\	.	.	.	.	.
4G\	cri-	.	.	.	.
4F/	.	.	.	.	.
4E/	.	.	.	.	.
=22-	=22-	=22-	=22-	=22-	=22-
00D	-stus	1.d	est	1.f	cri-
*	*	*custos:B	*	*custos:d	*
.	.	2c/	cri-	2e/	.
!	!	!LO:LB:g=original	!	!LO:PB:g=original	!
=23-	=23-	=23-	=23-	=23-	=23-
.	.	2B/	.	2d/	.
.	.	4A/	.	1g	.
.	.	4G/	.	.	.
.	.	1A	.	.	.
.	.	.	.	2f\	.
=24-	=24-	=24-	=24-	=24-	=24-
*custos:D	*	*	*	*	*
0GG;	.	0G;	-stus	0g;<	-ſtus
!LO:LB:g=original	!	!	!	!	!
=25||	=25||	=25||	=25||	=25||	=25||
0r	.	1d	E-	0d	e-
.	.	1d	-pu-	.	.
=26-	=26-	=26-	=26-	=26-	=26-
*	*	*lig	*	*	*
1D	E-	1f	-le-	1d	-pu-
1D	-pu-	1d	.	0f	-le-
*	*	*Xlig	*	*	*
=27-	=27-	=27-	=27-	=27-	=27-
*lig	*	*	*	*	*
1F	-le-	1c	.	.	.
1D	.	2d/	.	1f	-mur
.	.	2f\	.	.	.
*Xlig	*	*	*	*	*
=28-	=28-	=28-	=28-	=28-	=28-
*lig	*	*	*	*	*
1C	.	1e	.	2g\	.
.	.	.	.	1g	in
1D	.	1d	.	.	.
.	.	.	.	2f\	a-
*Xlig	*	*	*	*	*
=29-	=29-	=29-	=29-	=29-	=29-
2E\	.	2c/	.	2g\	-zi-
2F\	.	2d/	.	2f\	.
*	*	*custos:d	*	*	*
2G\	.	2e/	.	2e\	.
*	*	*	*	*custos:g	*
!	!	!LO:PB:g=original	!	!	!
2F\	.	1d\	.	2f\	.
!	!	!	!	!LO:LB:g=original	!
=30-	=30-	=30-	=30-	=30-	=30-
1E	.	.	.	1g	.
.	.	2c/	-le-	.	.
1D	-mur	1d	-mur	2f\	.
.	.	.	.	2d/	.
=31-	=31-	=31-	=31-	=31-	=31-
*	*	*lig	*	*	*
0D	in	1d	in	1f	.
.	.	1f	.	2d/	.
.	.	.	.	1d\	.
*	*	*Xlig	*	*	*
=32-	=32-	=32-	=32-	=32-	=32-
1A	a-	2.e\	a-	.	.
.	.	.	.	2c/	.
.	.	4f\	.	.	.
2G\	-zi-	2g\	.	2d/	.
2E/	.	2g\	-zi-	2e/	.
=33-	=33-	=33-	=33-	=33-	=33-
*	*	*lig	*	*	*
2F/	.	1a	.	2c/	-mis
*	*	*	*	*	*ij
2D/	.	.	.	1d	e-
1G	.	1d	.	.	.
.	.	.	.	2B/	-pu-
*	*	*Xlig	*	*	*
=34-	=34-	=34-	=34-	=34-	=34-
*custos:D	*	*	*	*	*
2A\	.	1f	.	2c/	-le-
!LO:LB:g=original	!	!	!	!	!
2D/	.	.	.	2d/	-mur
2C/	.	2e\	.	2e\	.
2D/	.	1d\	.	2f\	.
=35-	=35-	=35-	=35-	=35-	=35-
1E	-mis	.	.	1g	in-
.	.	2c/	.	.	.
*	*	*custos:d	*	*custos:d	*
0.D	.	1d	-mis	0f	-a-
!	!	!LO:LB:g=original	!	!	!
=36-	=36-	=36-	=36-	=36-	=36-
*	*	*lig	*	*	*
.	.	1d	ſin-	.	.
!	!	!	!	!LO:LB:g=original	!
.	.	1f	.	2.d/	-zi-
.	.	.	.	4c/	.
*	*	*Xlig	*	*	*
=37-	=37-	=37-	=37-	=37-	=37-
*	*	*lig	*	*	*
2.G\	ſin-	1d	-ce-	2.B/	.
4F/	.	.	.	4A/	.
4E/	.	1g	.	1G	-mis
*	*	*	*	*	*Xij
4D/	.	.	.	.	.
2C/	.	.	.	.	.
*	*	*Xlig	*	*	*
=38-	=38-	=38-	=38-	=38-	=38-
1D	-ce-	2f\	.	1d	ſin-
.	.	1d	ri-	.	.
1A	-ri-	.	.	1e	-ce-
.	.	2c/	-ta-	.	.
=39-	=39-	=39-	=39-	=39-	=39-
2D/	-ta-	0d	-tis	2f\	.
1G	.	.	.	2g\	.
.	.	.	.	1a	-ri-
2F/	-tis	.	.	.	.
=40-	=40-	=40-	=40-	=40-	=40-
*	*	*lig	*	*	*
2G\	.	1G	et	2g\	-ta-
2E/	.	.	.	1g	.
1D	.	1A	.	.	.
.	.	.	.	2f\	-tis
*	*	*Xlig	*	*	*
=41-	=41-	=41-	=41-	=41-	=41-
*custos:G	*	*	*	*	*
*	*	*lig	*	*	*
1C	et	1c	ve-	0g	.
!LO:PB:g=original	!	!	!	!	!
1G	ve-	1d	.	.	.
*	*	*Xlig	*	*	*
=42-	=42-	=42-	=42-	=42-	=42-
2C/	-ri	0c	-ri-	2e\	et
*	*	*	*	*custos:g	*
1F	.	.	.	2f\	.
!	!	!	!	!LO:LB:g=original	!
.	.	.	.	1g	.
2E/	.	.	.	.	.
=43-	=43-	=43-	=43-	=43-	=43-
1F	.	1.c	-ta-	1f	.
1C	.	.	.	1e	.
.	.	2B/	.	.	.
=44-	=44-	=44-	=44-	=44-	=44-
2D/	.	2A/	.	2f\	.
2E/	.	2G/	.	1g	.
1D	.	1A	.	.	.
.	.	.	.	2f\	ve-
=45-	=45-	=45-	=45-	=45-	=45-
1GG	.	[0G;l	-tis	1g	.
0C	ve-	.	.	0e	.
=46-	=46-	=46-	=46-	=46-	=46-
.	.	0G_	.	.	.
1BB	-ri-	.	.	1d	-ri-
=47-	=47-	=47-	=47-	=47-	=47-
0C	-ta-	0G_	.	0c	-ta-
=48-	=48-	=48-	=48-	=48-	=48-
*	*	*	*	*lig	*
0GG;l	-tis	0G]	.	1B;<	-tis
.	.	.	.	1g;	.
*	*	*	*	*Xlig	*
==	==	==	==	==	==
*-	*-	*-	*-	*-	*-
!!!system-decoration: [(s1,s2,s3)]
!!!RDF**kern: < = below
!!!RDF**kern: l = terminal long
!!!ENC: Anastazja Marusiak
!!!END: 2022-01-16
!!!ENC: Marta Lawrence
!!!END: 2022-01-24
!!!YEC: Copyright 2022 Narodowy Instytut Fryderyka Chopina (https://polishscores.org)
!!!YEM: Licence CC BY 4.0 (https://creativecommons.org/licenses/by/4.0)
